X:2101
T:From Thee Eliza I Must Go
O:england
B:Joyce, P. W.; "Old Irish Folk Music and Songs"
R:song air
H:  The Munster people--as I have stated elsewhere in this book--sang
H:several of Burns' songs to native Irish airs.  The song "From thee Eliza I
H:must go" I have often heard sung when a boy, always with the following Irish
H:air.  Compare with "Una" in my "Ancient Irish Music."
L:1/8
M:C
K:C
D|D>EGE DEG>E|DEGA G3 G|AAc>d dde>c|dc/A/ GA A3||c/d/|
eefe d>c A>^F|GEDE G3 E|AA c>d dc/d/ e>c|dc/A/ GA A3||


